X: 101870
T: John Cronin's #2
D: The Monks of the Screw
S: M.O'Keeffe via Paul de Grae
R: polka
M: 2/4
L: 1/8
K: D
FA FA|dB BA|FA FA|dB A2|
FA FA|dB B2|AB/A/ GE|ED D2 :|
dB B/c/B/A/|FA BA|dB B/c/B/A/|FA E2|
dB B/c/B/A/|FA BA|B/c/B/A/ GE|ED D2 :|
